<?xml version="1.0" encoding="UTF-8"?>
<map version="1.10" tiledversion="1.12.0" orientation="orthogonal" renderorder="right-down" width="40" height="23" tilewidth="16" tileheight="16" infinite="0" nextlayerid="6" nextobjectid="13">
 <tileset firstgid="1" source="indoors_floor2.tsx"/>
 <tileset firstgid="5" source="indoors_floor1.tsx"/>
 <tileset firstgid="396" source="house_walls.tsx"/>
 <tileset firstgid="431" source="indoors_main.tsx"/>
 <layer id="1" name="Tile Layer 1" width="40" height="23">
  <data encoding="csv">
411,411,411,411,411,411,411,411,411,411,411,411,411,411,411,411,411,411,411,411,411,411,411,411,411,411,411,411,411,411,411,411,411,411,411,411,411,411,411,411,
404,404,404,404,404,404,404,404,404,404,404,404,404,404,404,404,404,404,404,404,404,404,404,404,404,404,404,404,404,404,404,404,404,404,404,404,404,404,404,404,
197,197,197,197,197,197,197,197,197,197,197,197,197,197,197,197,197,197,197,197,197,197,197,197,197,197,197,197,197,197,197,197,197,197,197,197,197,197,197,197,
197,197,197,197,197,197,197,197,197,197,197,197,197,197,197,197,197,197,197,197,197,197,197,197,197,197,197,197,197,197,197,197,197,197,197,197,197,197,197,197,
197,197,197,197,197,197,197,197,197,197,197,197,197,197,197,197,197,197,197,197,197,197,197,197,197,197,197,197,197,197,197,197,197,197,197,197,197,197,197,197,
197,197,197,678,679,680,681,681,197,197,197,197,197,197,197,197,197,197,197,197,197,197,197,197,197,197,197,197,197,197,197,197,197,197,197,197,197,197,197,197,
197,197,197,694,695,696,697,697,197,197,197,197,197,197,197,197,197,197,197,197,197,197,197,197,197,197,197,197,197,197,197,197,197,197,197,197,197,197,197,197,
197,197,197,710,711,712,713,713,197,197,197,197,678,679,679,679,679,679,679,679,679,679,679,679,679,679,680,681,197,197,197,197,197,197,197,197,197,197,197,197,
197,197,197,710,710,711,712,713,197,197,197,197,694,695,695,695,696,695,696,695,695,695,696,695,695,695,696,697,197,197,197,197,197,197,197,197,197,197,197,197,
197,197,197,197,197,197,197,197,197,197,197,197,694,695,695,695,696,695,695,695,695,695,695,695,695,696,696,697,197,197,197,197,197,197,197,197,197,197,197,197,
197,197,197,197,197,197,197,197,197,197,197,197,694,695,695,696,695,695,695,695,695,695,695,695,695,695,696,697,197,197,197,197,197,197,197,197,197,197,197,197,
197,197,197,197,197,197,197,197,197,197,197,197,694,695,696,695,695,695,695,695,695,695,696,696,695,695,696,697,197,197,197,197,197,197,197,197,197,197,197,197,
197,197,197,197,197,197,197,197,197,197,197,197,694,695,695,695,695,696,695,695,696,695,696,695,696,696,696,697,197,197,197,197,197,197,197,197,197,197,197,197,
197,197,197,197,700,701,702,197,197,197,197,197,710,711,711,711,711,711,711,711,711,711,711,711,711,711,712,713,197,197,197,197,197,197,197,197,197,197,197,197,
197,197,197,197,716,717,718,197,197,197,197,197,197,197,197,197,197,197,197,197,197,197,197,197,197,197,197,197,197,197,197,197,197,197,197,197,197,197,197,197,
197,197,197,197,732,733,734,197,197,197,197,197,197,197,197,197,197,197,197,197,197,197,197,197,197,197,197,197,197,197,197,197,197,197,197,197,197,197,197,197,
197,197,197,197,748,749,750,197,197,197,197,197,197,197,197,197,197,197,197,197,197,197,197,197,197,197,197,197,197,197,197,197,197,197,197,197,197,197,197,197,
197,197,197,197,197,197,197,197,197,197,197,197,197,197,197,197,197,197,197,197,197,197,197,197,197,197,197,197,197,197,197,197,197,197,197,197,197,197,197,197,
197,197,197,197,197,197,197,197,197,197,197,197,197,197,197,197,197,197,197,197,197,197,197,197,197,197,197,197,197,197,197,197,197,197,197,197,197,197,197,197,
197,197,197,197,197,197,197,197,197,197,197,197,197,197,197,197,197,197,197,197,197,197,197,197,197,197,197,197,197,197,197,197,197,197,197,197,197,197,197,197,
418,418,418,418,418,418,418,418,418,418,418,418,418,418,418,418,418,418,418,418,418,418,418,418,418,418,418,418,418,418,418,418,418,418,418,418,418,418,418,418,
411,411,411,411,411,411,411,411,411,411,411,411,411,411,411,411,411,411,411,411,411,411,411,411,411,411,411,411,411,411,411,411,411,411,411,411,411,411,411,411,
411,411,411,411,411,411,411,411,411,411,411,411,411,411,411,411,411,411,411,411,411,411,411,411,411,411,411,411,411,411,411,411,411,411,411,411,411,411,411,411
</data>
 </layer>
 <layer id="2" name="Tile Layer 2" width="40" height="23">
  <data encoding="csv">
0,0,0,0,0,0,0,0,0,0,0,0,0,0,0,0,0,0,0,0,0,0,0,0,0,0,0,0,0,0,0,0,0,0,0,0,0,0,0,0,
0,1531,1531,1532,1534,1533,1534,1529,1530,1533,1534,1533,1534,1533,1534,1529,1530,1531,1532,1533,1534,1533,1534,1533,1534,1531,1532,1533,1534,1533,1534,1533,1534,1533,1529,1530,1534,1533,1534,0,
412,1547,1547,1548,1550,1549,1550,1545,1546,1549,1550,1549,1550,1549,1550,1545,1546,1547,1548,1549,1550,1549,1550,1549,1550,1547,1548,1549,1550,1549,1550,1549,1550,1549,1545,1546,1550,1549,1550,410,
412,1563,1563,1564,1566,1565,1566,1561,1562,1565,1566,1565,1566,1565,1566,1561,1562,1563,1564,1565,1566,1565,1566,1565,1566,1563,1564,1565,1566,1565,1566,1565,1566,1565,1561,1562,1566,1565,1566,410,
412,1652,1653,0,0,0,0,0,1650,1651,0,0,0,0,0,0,0,0,0,0,0,0,0,0,0,0,0,0,0,0,0,0,0,0,0,0,0,0,0,410,
412,1668,1669,0,0,0,0,0,1666,1667,0,0,0,0,0,0,0,0,0,0,0,0,0,0,0,0,0,0,0,0,0,0,0,0,0,0,0,0,0,410,
412,1668,1669,0,695,696,696,0,1666,1667,0,0,0,0,0,0,0,0,0,0,0,0,0,0,0,0,0,0,0,0,0,0,0,0,0,0,0,0,0,410,
412,1668,1669,0,695,696,696,0,1666,1667,0,0,678,679,679,679,679,679,679,679,679,679,679,680,679,679,680,681,0,0,0,0,0,0,0,0,0,0,0,410,
412,1684,1685,0,0,0,0,0,1682,1683,0,0,694,695,696,695,696,695,696,695,696,695,696,695,696,695,696,697,0,0,0,0,0,0,0,0,0,0,0,410,
412,0,0,0,0,0,0,0,0,0,0,0,694,695,696,695,696,695,696,695,696,695,696,695,696,695,696,697,0,0,0,0,0,0,0,0,0,0,0,410,
412,0,0,0,0,0,0,0,0,0,0,0,694,695,696,695,696,695,696,695,696,695,696,695,696,695,696,697,0,0,0,0,0,0,0,0,0,0,0,410,
412,1652,1653,0,0,0,0,0,1650,1651,0,0,694,695,696,695,696,695,696,695,696,695,696,695,696,695,696,697,0,0,0,0,0,0,0,0,0,0,0,410,
412,1668,1669,0,0,0,0,0,1666,1667,0,0,694,695,696,695,696,695,696,695,696,695,696,695,696,695,696,697,0,0,0,0,0,0,0,0,0,0,0,410,
412,1668,1669,0,0,0,0,0,1666,1667,0,0,710,711,711,711,711,711,711,711,711,711,711,711,711,711,712,713,0,0,0,0,0,0,0,0,0,0,0,410,
412,1668,1669,0,0,0,0,0,1666,1667,0,0,0,0,0,0,0,0,0,0,0,0,0,0,0,0,0,0,0,0,0,0,0,0,0,0,0,0,0,410,
412,1668,1669,0,0,0,0,0,1666,1667,0,0,0,0,0,0,0,0,0,0,0,0,0,0,0,0,0,0,0,0,0,0,0,0,0,0,0,0,0,410,
412,1668,1669,0,0,0,0,0,1666,1667,0,0,0,0,0,0,0,0,0,0,0,0,0,0,0,0,0,0,0,0,0,0,0,0,0,0,0,0,0,410,
412,1684,1685,0,0,0,0,0,1682,1683,0,0,0,0,0,0,0,0,0,0,0,0,0,0,0,0,0,0,0,0,0,0,0,0,0,0,0,0,0,410,
412,0,0,0,0,0,0,0,0,0,0,0,0,0,0,0,0,0,0,0,0,0,0,0,0,0,0,0,0,0,0,0,0,0,0,0,0,0,0,410,
412,0,0,0,0,0,0,0,0,0,0,0,0,0,0,0,0,0,0,0,0,0,0,0,0,0,0,0,0,0,0,0,0,0,0,0,0,0,0,410,
0,0,0,0,0,0,0,0,0,0,0,0,0,0,0,0,0,0,0,0,0,0,0,0,0,0,0,0,0,0,0,0,0,0,0,0,0,0,0,0,
0,0,0,0,0,0,0,0,0,0,0,0,0,0,0,0,0,0,0,0,0,0,0,0,0,0,0,0,0,0,0,0,0,0,0,0,0,0,0,0,
0,0,0,0,0,0,0,0,0,0,0,0,0,0,0,0,0,0,0,0,0,0,0,0,0,0,0,0,0,0,0,0,0,0,0,0,0,0,0,0
</data>
 </layer>
 <layer id="3" name="Tile Layer 3" width="40" height="23">
  <data encoding="csv">
0,0,0,0,0,0,0,0,0,0,0,0,0,0,0,0,0,0,0,0,0,0,0,0,0,0,0,0,0,0,0,0,0,0,0,0,0,0,0,0,
0,0,0,0,0,0,0,0,0,0,0,0,0,0,0,0,0,0,0,0,0,0,0,0,0,0,0,0,0,0,0,0,0,0,0,0,0,0,0,0,
0,0,0,0,0,0,0,0,0,0,0,0,0,0,0,0,0,0,0,0,0,0,0,0,0,0,0,0,0,0,0,0,0,0,0,0,0,0,0,0,
0,0,0,0,0,0,0,0,0,0,0,0,0,0,0,0,0,0,0,0,0,0,0,0,0,0,0,0,0,0,0,0,0,0,0,0,0,0,0,0,
0,0,0,0,0,0,0,0,0,0,0,0,0,0,0,0,0,0,0,0,0,0,0,0,0,0,0,0,0,0,0,0,0,0,0,0,0,0,0,0,
0,0,0,591,592,595,593,594,0,0,0,0,0,0,0,0,0,0,0,0,0,0,0,0,0,0,0,0,0,0,0,0,0,0,0,0,0,0,0,0,
0,0,0,607,608,611,609,610,0,0,0,0,0,0,0,0,0,0,0,0,0,0,0,0,0,0,0,0,0,0,0,0,0,0,0,0,0,0,0,0,
0,0,0,623,624,627,625,626,0,0,0,0,0,0,0,0,0,0,0,0,0,0,0,0,0,0,0,0,0,0,0,0,0,0,0,0,0,0,0,0,
0,0,0,0,0,0,0,0,0,0,0,0,0,0,0,0,0,0,0,0,0,0,0,0,0,0,0,0,0,0,0,0,0,0,0,0,0,0,0,0,
0,0,0,0,0,0,0,0,0,0,0,0,0,0,0,0,0,0,0,0,0,0,0,0,0,0,0,0,0,0,0,0,0,0,0,0,0,0,0,0,
0,0,0,0,0,0,0,0,0,0,0,0,0,0,0,0,0,0,0,0,0,0,0,0,0,0,0,0,0,0,0,0,0,0,0,0,0,0,0,0,
0,0,0,0,0,0,0,0,0,0,0,0,0,0,0,0,0,0,0,0,0,0,0,0,0,0,0,0,0,0,0,0,0,0,0,0,0,0,0,0,
0,0,0,591,595,595,595,594,0,0,0,0,0,0,0,0,0,0,0,0,0,0,0,0,0,0,0,0,0,0,0,0,0,0,0,0,0,0,0,0,
0,0,0,607,611,611,611,610,0,0,0,0,0,0,0,0,0,0,0,0,0,0,0,0,0,0,0,0,0,0,0,0,0,0,0,0,0,0,0,0,
0,0,0,591,611,611,611,594,0,0,0,0,0,0,0,0,0,0,0,0,0,0,0,0,0,0,0,0,0,0,0,0,0,0,0,0,0,0,0,0,
0,0,0,607,608,611,609,610,0,0,0,0,0,0,0,0,0,0,0,0,0,0,0,0,0,0,0,0,0,0,0,0,0,0,0,0,0,0,0,0,
0,0,0,623,624,627,625,626,0,0,0,0,0,0,0,0,0,0,0,0,0,0,0,0,0,0,0,0,0,0,0,0,0,0,0,0,0,0,0,0,
0,0,0,0,0,0,0,0,0,0,0,0,0,0,0,0,0,0,0,0,0,0,0,0,0,0,0,0,0,0,0,0,0,0,0,0,0,0,0,0,
0,0,0,0,0,0,0,0,0,0,0,0,0,0,0,0,0,0,0,0,0,0,0,0,0,0,0,0,0,0,0,0,0,0,0,0,0,0,0,0,
0,0,0,0,0,0,0,0,0,0,0,0,0,0,0,0,0,0,0,0,0,0,0,0,0,0,0,0,0,0,0,0,0,0,0,0,0,0,0,0,
0,0,0,0,0,0,0,0,0,0,0,0,0,0,0,0,0,0,0,0,0,0,0,0,0,0,0,0,0,0,0,0,0,0,0,0,0,0,0,0,
0,0,0,0,0,0,0,0,0,0,0,0,0,0,0,0,0,0,0,0,0,0,0,0,0,0,0,0,0,0,0,0,0,0,0,0,0,0,0,0,
0,0,0,0,0,0,0,0,0,0,0,0,0,0,0,0,0,0,0,0,0,0,0,0,0,0,0,0,0,0,0,0,0,0,0,0,0,0,0,0
</data>
 </layer>
 <objectgroup id="5" name="Collisions">
  <object id="2" x="-2.06897" y="-4.13793" width="644.828" height="32.4138"/>
  <object id="3" x="15.8621" y="19.3103" width="606.207" height="25.5172"/>
  <object id="4" x="635.172" y="10.3448" width="13.7931" height="359.31"/>
  <object id="5" x="-2.06897" y="321.379" width="647.586" height="52.4138"/>
  <object id="6" x="-5.51724" y="24.8276" width="8.96552" height="342.069"/>
  <object id="7" x="149.655" y="182.069" width="8.27586" height="102.069"/>
  <object id="8" x="149.655" y="68.9655" width="8.27586" height="73.7931"/>
  <object id="9" x="17.2414" y="69.6552" width="8.96552" height="72.4138"/>
  <object id="10" x="17.2414" y="184.138" width="6.89655" height="99.3103"/>
  <object id="11" x="63.4483" y="192.414" width="50.3448" height="65.5172"/>
  <object id="12" x="61.3793" y="81.3793" width="52.4138" height="31.7241"/>
 </objectgroup>
</map>
