<?xml version="1.0" encoding="UTF-8"?>
<map version="1.10" tiledversion="1.12.0" orientation="orthogonal" renderorder="right-down" width="40" height="23" tilewidth="16" tileheight="16" infinite="0" nextlayerid="6" nextobjectid="22">
 <tileset firstgid="1" source="Fields.tsx"/>
 <tileset firstgid="49" source="indoors_floor1.tsx"/>
 <tileset firstgid="440" source="house_walls.tsx"/>
 <tileset firstgid="475" source="foliage.tsx"/>
 <tileset firstgid="520" source="Colours.tsx"/>
 <layer id="1" name="Tile Layer 1" width="40" height="23">
  <data encoding="csv">
198,198,198,198,197,197,197,197,197,197,197,197,198,198,198,198,198,198,198,197,197,197,197,197,61,61,61,197,197,198,198,197,197,198,198,198,198,198,197,197,
198,197,197,197,197,197,198,198,198,198,198,198,198,197,197,197,197,198,198,198,197,197,198,198,198,61,61,61,145,210,210,210,210,211,145,210,211,145,145,61,
61,146,146,210,210,210,211,146,146,210,211,145,145,210,211,145,145,210,210,210,211,145,145,61,61,61,61,61,145,227,227,227,227,228,145,227,228,145,145,269,
269,146,146,227,227,227,228,146,146,227,228,145,145,227,228,145,145,227,227,227,228,145,145,61,61,61,61,61,145,145,145,145,145,145,145,145,145,145,145,269,
269,146,146,146,146,146,146,146,146,146,145,145,145,145,145,145,145,145,145,145,145,145,145,61,269,269,269,61,145,210,210,210,210,211,145,145,145,145,145,200,
269,146,146,210,210,210,211,146,146,146,145,145,145,145,145,145,145,210,210,210,211,145,145,269,268,268,268,269,145,227,227,227,227,228,145,145,145,145,145,166,
200,145,145,227,227,227,228,145,145,145,145,145,145,145,145,145,145,227,227,227,228,145,145,268,268,268,268,268,145,145,145,145,145,145,145,145,145,145,145,166,
166,145,145,145,145,145,145,145,145,145,145,145,145,145,145,145,145,145,145,145,145,145,145,234,234,234,234,234,145,145,145,145,145,145,145,145,145,145,145,166,
166,145,145,145,145,145,145,145,145,145,145,145,145,145,145,145,145,145,145,145,145,145,145,166,166,166,266,266,343,343,343,343,343,343,343,343,343,343,343,266,
343,343,343,343,343,343,343,343,343,343,343,343,343,343,343,343,343,343,343,343,343,343,343,343,343,343,343,343,343,343,343,343,343,343,343,343,343,343,343,343,
343,343,343,343,343,343,343,343,343,343,343,343,343,343,343,343,343,343,343,343,343,343,343,343,343,343,343,343,343,343,343,266,266,266,266,266,266,266,266,266,
266,266,266,266,266,266,266,266,266,266,266,266,266,266,266,266,266,266,266,266,266,266,266,266,266,266,266,266,266,266,266,266,166,166,166,166,166,166,166,166,
166,166,166,166,166,166,166,166,166,166,166,166,166,166,166,166,166,166,166,166,166,166,166,166,166,166,166,166,166,166,166,166,166,166,166,166,166,166,166,166,
166,166,166,166,166,166,166,166,166,166,166,166,166,166,166,166,166,166,166,166,166,166,166,166,166,166,166,166,166,166,166,115,115,115,166,166,166,115,115,115,
166,115,115,115,115,115,166,166,166,166,166,115,115,115,115,115,166,166,166,166,166,115,115,115,115,115,166,166,166,115,115,115,166,166,166,166,166,166,166,166,
166,166,166,166,166,166,166,166,166,166,166,166,166,166,166,166,166,166,166,166,166,166,166,166,166,166,166,166,166,166,166,166,166,166,166,166,166,166,166,166,
166,166,166,166,166,166,166,166,166,166,166,166,166,166,166,166,166,166,166,166,166,166,166,166,166,166,166,166,166,166,166,166,166,166,166,266,266,266,266,266,
266,266,266,266,266,266,266,266,266,266,266,266,266,266,266,266,266,266,266,266,266,266,266,266,266,266,266,266,266,266,266,266,266,266,266,266,343,343,265,265,
343,343,343,343,343,343,343,343,343,343,343,343,343,343,343,343,343,343,343,343,343,343,343,343,343,343,343,343,343,343,343,343,343,343,343,343,343,266,266,266,
266,266,266,266,266,266,266,266,266,266,266,266,266,266,266,266,266,266,266,266,266,266,266,266,266,266,266,266,266,266,266,266,266,266,266,266,266,266,613,613,
610,610,610,610,613,613,29,29,29,29,29,613,613,613,613,613,613,613,610,613,613,613,613,613,613,613,613,613,613,613,29,29,29,29,613,613,613,610,610,610,
610,610,610,613,613,29,29,29,29,29,613,613,610,610,610,610,610,610,610,610,610,610,610,610,610,610,610,610,613,613,613,29,29,613,613,613,610,610,610,610,
610,610,613,613,29,29,29,29,29,613,613,610,610,610,610,610,610,610,610,610,610,610,610,610,610,610,610,610,610,613,613,29,29,613,613,613,610,610,610,610
</data>
 </layer>
 <layer id="2" name="Tile Layer 2" width="40" height="23">
  <data encoding="csv">
0,0,0,0,0,0,0,0,0,0,0,0,0,0,0,0,0,0,0,0,0,0,0,0,0,0,0,0,0,0,0,0,0,0,0,0,0,0,0,0,
0,0,0,0,0,0,0,0,0,0,0,0,0,0,0,0,0,0,0,0,0,0,0,0,0,0,0,0,0,0,0,0,0,0,0,0,0,0,0,0,
0,0,0,0,0,0,0,0,0,0,0,0,0,0,0,0,0,0,0,0,0,0,0,0,0,0,0,0,0,0,0,0,0,0,0,0,0,0,0,0,
0,0,0,0,0,0,0,0,0,0,0,0,0,0,0,0,0,0,0,0,0,0,0,0,0,0,0,0,0,0,0,0,0,0,0,0,0,0,0,0,
0,0,0,0,0,0,0,0,0,0,0,0,0,0,0,0,0,0,0,0,0,0,0,0,0,0,0,0,0,0,0,0,0,0,0,0,0,0,0,0,
0,0,0,0,0,0,0,0,0,0,0,0,0,0,0,0,0,0,0,0,0,0,0,0,0,0,0,0,0,0,0,0,0,0,0,0,452,453,0,0,
0,0,0,0,0,0,0,0,0,452,453,0,0,0,452,453,0,0,0,0,0,0,0,0,0,0,0,0,0,0,0,0,0,0,0,0,459,460,0,0,
0,0,0,0,0,0,0,0,0,459,460,0,0,0,459,460,0,0,0,0,0,0,0,0,0,0,0,0,0,0,0,0,0,0,0,0,466,467,0,0,
0,0,0,0,0,0,0,0,0,466,467,0,0,0,466,467,0,0,0,0,0,0,0,0,0,0,0,0,0,0,0,0,0,0,0,0,0,0,0,0,
0,0,0,0,0,0,0,0,0,0,0,0,0,0,0,0,0,0,0,0,0,0,0,0,0,0,0,0,0,0,0,0,0,0,0,0,0,0,0,0,
0,0,0,0,0,0,0,0,0,0,0,0,0,0,0,0,0,0,0,0,0,0,0,0,0,0,0,0,0,0,0,0,0,0,0,0,0,0,0,0,
0,0,0,0,0,0,0,0,0,0,0,0,0,0,0,0,0,0,0,0,0,0,0,0,0,0,0,0,0,0,0,0,0,0,0,0,0,0,0,0,
0,0,0,0,0,0,0,0,0,0,0,0,0,0,0,0,0,0,0,0,0,0,0,0,0,0,0,0,0,0,0,0,0,0,0,0,0,0,0,0,
0,0,0,0,0,0,0,0,0,0,0,0,0,0,0,0,0,0,0,0,0,0,0,0,0,0,0,0,0,0,0,0,0,0,0,0,0,0,0,0,
0,0,0,0,0,0,0,0,0,0,0,0,0,0,0,0,0,0,0,0,0,0,0,0,0,0,0,0,0,0,0,0,0,0,0,0,0,0,0,0,
0,0,0,0,0,0,0,0,0,0,0,0,0,0,0,0,0,0,0,0,0,0,0,0,0,0,0,0,0,0,0,0,0,0,0,0,0,0,0,0,
0,0,0,0,0,0,0,0,0,0,0,0,0,0,0,0,0,0,0,0,0,0,0,0,0,0,0,0,0,0,0,0,0,0,0,0,0,0,0,0,
0,0,0,0,0,0,0,0,0,0,0,0,0,0,0,0,0,0,0,0,0,0,0,0,0,0,0,0,0,0,0,0,0,0,0,0,0,0,0,0,
0,0,0,0,0,0,0,0,0,0,0,0,0,0,0,0,0,0,0,0,0,0,0,0,0,0,0,0,0,0,0,0,0,0,0,0,0,0,0,0,
0,0,0,0,0,0,0,0,0,0,0,0,0,0,0,0,0,0,0,0,0,0,0,0,0,0,0,0,0,0,0,0,0,0,0,0,0,0,0,0,
0,502,0,0,0,0,0,0,0,0,0,0,0,0,0,0,0,0,0,0,0,0,0,0,0,0,0,0,0,0,0,0,0,0,0,0,0,0,0,502,
502,502,0,0,0,0,0,0,0,0,0,0,0,0,503,502,502,502,502,502,502,503,503,503,503,503,0,0,0,0,0,0,0,0,0,0,0,502,502,502,
0,0,0,0,0,0,0,0,0,0,0,0,502,502,502,502,502,503,502,502,503,502,502,503,503,503,503,503,0,0,0,0,0,0,0,0,0,0,0,0
</data>
 </layer>
 <layer id="3" name="Tile Layer 3" width="40" height="23">
  <data encoding="csv">
0,0,0,0,0,0,0,0,0,0,0,0,0,0,0,0,0,0,0,0,0,0,0,0,0,0,0,0,0,0,0,0,0,0,0,0,0,0,0,0,
0,0,0,0,0,0,0,0,0,0,0,0,0,0,0,0,0,0,0,0,0,0,0,0,0,0,0,0,0,0,0,0,0,0,0,0,0,0,0,0,
0,0,0,0,0,0,0,0,0,0,0,0,0,0,0,0,0,0,0,0,0,0,0,0,0,0,0,0,0,0,0,0,0,0,0,0,0,0,0,0,
0,0,0,0,0,0,0,0,0,0,0,0,0,0,0,0,0,0,0,0,0,0,0,0,0,0,0,0,0,0,0,0,0,0,0,0,0,0,0,0,
0,0,0,0,0,0,0,0,0,0,0,0,0,0,0,0,0,0,0,0,0,0,0,0,0,0,0,0,0,0,0,0,0,0,0,0,0,0,0,0,
0,0,0,0,0,0,0,0,0,0,0,0,0,0,0,0,0,0,0,0,0,0,0,0,0,0,0,0,0,0,0,0,0,0,0,452,453,0,0,0,
0,0,0,0,0,0,0,0,452,453,0,0,0,452,453,0,0,0,0,0,0,0,0,0,0,0,0,0,0,0,0,0,0,0,0,459,460,0,0,0,
0,0,0,0,0,0,0,0,459,460,0,0,0,459,460,0,0,0,0,0,0,0,0,0,0,0,0,0,0,0,0,0,0,0,0,466,467,0,0,0,
0,0,0,0,0,0,0,0,466,467,0,0,0,466,467,0,0,0,0,0,0,0,0,0,0,0,0,0,0,0,0,0,0,0,0,0,0,0,0,0,
0,0,0,0,0,0,0,0,0,0,0,0,0,0,0,0,0,0,0,0,0,0,0,0,0,0,0,0,0,0,0,0,0,0,0,0,0,0,0,0,
0,0,0,0,0,0,0,0,0,0,0,0,0,0,0,0,0,0,0,0,0,0,0,0,0,0,0,0,0,0,0,0,0,0,0,0,0,0,0,0,
0,0,0,0,0,0,0,0,0,0,0,0,0,0,0,0,0,0,0,0,0,0,0,0,0,0,0,0,0,0,0,0,0,0,0,0,0,0,0,0,
0,0,0,0,0,0,0,0,0,0,0,0,0,0,0,0,0,0,0,0,0,0,0,0,0,0,0,0,0,0,0,0,0,0,0,0,0,0,0,0,
0,0,0,0,0,0,0,0,0,0,0,0,0,0,0,0,0,0,0,0,0,0,0,0,0,0,0,0,0,0,0,0,0,0,0,0,0,0,0,0,
0,0,0,0,0,0,0,0,0,0,0,0,0,0,0,0,0,0,0,0,0,0,0,0,0,0,0,0,0,0,0,0,0,0,0,0,0,0,0,0,
0,0,0,0,0,0,0,0,0,0,0,0,0,0,0,0,0,0,0,0,0,0,0,0,0,0,0,0,0,0,0,0,0,0,0,0,0,0,0,0,
0,0,0,0,0,0,0,0,0,0,0,0,0,0,0,0,0,0,0,0,0,0,0,0,0,0,0,0,0,0,0,0,0,0,0,0,0,0,0,0,
0,0,0,0,0,0,0,0,0,0,0,0,0,0,0,0,0,0,0,0,0,0,0,0,0,0,0,0,0,0,0,0,0,0,0,0,0,0,0,0,
0,0,0,0,0,0,0,0,0,0,0,0,0,0,0,0,0,0,0,0,0,0,0,0,0,0,0,0,0,0,0,0,0,0,0,0,0,0,0,0,
476,477,0,0,0,0,0,0,0,0,0,0,0,0,0,0,0,0,0,0,0,0,0,0,0,0,0,0,0,0,0,0,0,0,0,0,0,0,0,0,
485,486,502,0,0,0,0,0,0,0,0,0,0,0,0,0,0,0,0,0,0,0,0,0,0,0,0,0,0,0,0,0,0,0,0,0,0,0,0,0,
0,502,0,0,0,0,0,0,0,0,0,0,0,0,0,0,0,0,0,0,0,0,0,0,0,0,0,0,0,0,0,0,0,0,0,0,0,0,476,477,
0,0,0,0,0,0,0,0,0,0,0,0,0,0,0,0,0,0,0,0,0,0,0,0,0,0,0,0,0,0,0,0,0,0,0,0,0,502,485,486
</data>
 </layer>
 <objectgroup id="5" name="Portals">
  <object id="19" x="557.639" y="77.8826" width="31.9319" height="44.3931"/>
  <object id="20" x="207.168" y="89.565" width="37.3836" height="48.2872"/>
  <object id="21" x="124.612" y="90.3438" width="37.3836" height="52.1813">
   <properties>
    <property name="spawnX" type="float" value="570"/>
    <property name="spawnY" type="float" value="70"/>
    <property name="targetMap" value="house.tmx"/>
   </properties>
  </object>
 </objectgroup>
 <objectgroup id="4" name="Collisions">
  <object id="4" x="-3.1153" y="-12.4612" width="625.397" height="59.9696"/>
  <object id="5" x="570.879" y="-30.3742" width="77.8826" height="45.1719"/>
  <object id="6" x="14.0189" y="38.1625" width="352.808" height="52.9601"/>
  <object id="7" x="445.488" y="41.2778" width="176.015" height="40.4989"/>
  <object id="8" x="448.604" y="80.9979" width="107.478" height="44.3931"/>
  <object id="9" x="590.35" y="79.4402" width="31.9319" height="44.3931"/>
  <object id="10" x="241.436" y="88.7861" width="126.949" height="52.9601"/>
  <object id="11" x="159.659" y="86.4497" width="48.2872" height="57.6331"/>
  <object id="12" x="18.6918" y="88.0073" width="105.92" height="53.739"/>
  <object id="13" x="225.081" y="334.116" width="193.149" height="16.3553"/>
  <object id="14" x="192.37" y="349.693" width="256.234" height="17.913"/>
  <object id="15" x="589.571" y="327.886" width="59.1908" height="43.6142"/>
  <object id="16" x="621.503" y="319.319" width="28.8166" height="14.7977"/>
  <object id="17" x="-0.778826" y="302.184" width="31.9319" height="48.2872"/>
  <object id="18" x="21.0283" y="315.424" width="30.3742" height="21.0283"/>
 </objectgroup>
</map>
